X:1
T:Over There
T:Over There
T:Arranged by Robert Emmett Winsett
T:Mrs. T. C. Ferguson, 1910
T:Public Domain Courtesy of the Cyber Hymnal™
T:Public Domain Courtesy of the Cyber Hymnal™
C:Arranged by Robert Emmett Winsett
Z:Public Domain
Z:Courtesy of the Cyber Hymnal™
%%score ( 1 2 ) ( 3 4 )
L:1/8
Q:1/4=95
M:4/4
K:F
V:1 treble 
V:2 treble 
V:3 bass 
V:4 bass 
V:1
 C>[B,F] | [FA][FA][FA][FA] [FA]2 [FG]F | [DG][DF][DF]D [=DF]2 [DF][_DG] | %3
w: 1.~In a|man- ger far a- way, Once the|Prince of Glo- ry lay, But the|
w: 2.~In the|tem- ple, we are told, He was|found when twelve years old, And the|
w: 3.~And when|He be- came a man, Then ac-|cord- ing to God’s plan, Was bap-|
w: 4.~By the|Spir- it He was led To the|wild- er- ness, ’tis said, To be|
w: 5.~And at|last those wick- ed men, Full of|en- vy and of sin, Nailed our|
 [CA][FA][FA][FA] [Fc][Fc][EB][FA] | [EG]6 !fermata![Gc][GB] | [FA]>[FA] [FA][FA] [FA]2 [FG]F | %6
w: kings of earth would not the Sav- ior|greet; But the|wise men from a- far, Brought Him|
w: peo- ple at His know- ledge were sur-|prised; His ex-|am- ples then should be Fol- lowed|
w: tized by John in Jor- dan, and be-|hold: Heav- ens|o- pened from a- bove, And God’s|
w: tempt- ed, but He o- ver- came with|power, And to|Naz’- reth then He came, And the|
w: bless- èd Sav- ior to the cru- el|tree; But tri-|umph- ant from the grave, He a-|
 [DG][DF][DF][B,D] [DF]2 [DF][_DG] | [CA][CA][CA][CF] [EG][EG] [EA]>[EG] | F6 || %9
w: frank- in- cense and myrrh, And the|shep- herds came and wor- shiped at His|feet.|
w: now by you and me, Tell the|lost that He will heed their ear- nest|cries.|
w: Spir- it, like a dove, Came down,|and His Fa- ther’s voice was heard, we’re|told.|
w: Gos- pel did pro- claim, Ma- ny|peo- ple turned a- gainst Him from that|hour.|
w: rose with power to save, And from|sin He wants to set the cap- tive|free.|
"^Refrain" C>[B,F] | [FA][FA][FA][FA] [FA]2 [FG]F | [DG][DF][DF]D [=DF]2 [DF][_DG] | %12
w: |||
w: |||
w: O- ver|the- re, o- ver there, In that|land so bright and fair, He will|
w: |||
w: |||
 [CA][FA][FA][FA] [Fc][Fc][EB][FA] | [EG]6 !fermata![Gc][GB] | [FA]>[FA] [FA][FA] [FA]2 [FG]F | %15
w: |||
w: |||
w: tell us all a- bout it o- ver|there; On that|hap- py, gold- en strand, We’ll take|
w: |||
w: |||
 [DG][DF][DF][B,D] [DF]2 [DF][_DG] | [CA][CA][CA][CF] [EG][EG] [EA]>[EG] | F6 |] %18
w: |||
w: |||
w: Je- sus by His hand, And He’ll|tell us all a- bout it o- ver|there.|
w: |||
w: |||
V:2
 C3/2 x/ | x7 F | x3 _D x4 | x8 | x8 | x7 F | x8 | x8 | F6 || C3/2 x/ | x7 F | x3 _D x4 | x8 | x8 | %14
 x7 F | x8 | x8 | F6 |] %18
V:3
 [F,A,]>[F,A,] | [F,C][F,C][F,C][F,C] [F,C]2 [F,B,][F,A,] | %2
 [B,,B,][B,,B,][B,,B,][B,,F,] [B,,B,]2 [B,,B,][B,,F,] | F,[F,C][F,C][F,C] [A,C][A,C][G,C][F,C] | %4
 [C,C]6 !fermata![C,E][E,D] | [F,C]>[F,C] [F,C][F,C] [F,C]2 [F,B,][F,A,] | %6
 [B,,B,][B,,B,][B,,B,][B,,F,] [B,,B,]2 [B,,B,][B,,F,] | F,F,F,[F,A,] [C,B,][C,B,] [C,C]>[C,B,] | %8
 [F,A,]6 || [F,A,]>[F,A,] | [F,C][F,C][F,C][F,C] [F,C]2 [F,B,][F,A,] | %11
 [B,,B,][B,,B,][B,,B,][B,,F,] [B,,B,]2 [B,,B,][B,,F,] | F,[F,C][F,C][F,C] [A,C][A,C][G,C][F,C] | %13
 [C,C]6 [C,E][E,D] | [F,C]>[F,C] [F,C][F,C] [F,C]2 [F,B,][F,A,] | %15
 [B,,B,][B,,B,][B,,B,][B,,F,] [B,,B,]2 [B,,B,][B,,F,] | F,F,F,[F,A,] [C,B,][C,B,] [C,C]>[C,B,] | %17
 [F,A,]6 |] %18
V:4
 x2 | x8 | x8 | F, x7 | x8 | x8 | x8 | F,F,F, x5 | x6 || x2 | x8 | x8 | F, x7 | x8 | x8 | x8 | %16
 F,F,F, x5 | x6 |] %18

